build/finance/PayCashOutline.svg

<svg xmlns="http://www.w3.org/2000/svg" fill="none" viewBox="0 0 24 24" focusable="false"><path d="M0 0H24V24H0z"/><path fill="#74767B" fill-rule="evenodd" d="M18 4C19.6569 4 21 5.34315 21 7L21 9.03479C21.5733 9.17022 22 9.68528 22 10.3L22 13.7C22 14.3147 21.5733 14.8298 21 14.9652L21 17C21 18.6569 19.6569 20 18 20L6 20C4.34315 20 3 18.6569 3 17L3 7C3 5.34315 4.34315 4 6 4L18 4ZM6 5.3C5.06112 5.3 4.3 6.06112 4.3 7L4.3 17C4.3 17.9389 5.06112 18.7 6 18.7L18 18.7C18.9389 18.7 19.7 17.9389 19.7 17L19.7 15L19 15C17.3431 15 16 13.6569 16 12C16 10.3431 17.3431 9 19 9L19.7 9L19.7 7C19.7 6.06112 18.9389 5.3 18 5.3L6 5.3ZM11.5083 8.41638C11.7599 8.16027 12.1714 8.15659 12.4275 8.40814L14.6509 10.592C14.907 10.8436 14.9107 11.2551 14.6591 11.5112C14.4076 11.7673 13.996 11.771 13.7399 11.5195L12.6608 10.4595L12.6608 15.3635C12.6608 15.7225 12.3698 16.0135 12.0108 16.0135C11.6518 16.0135 11.3608 15.7225 11.3608 15.3635L11.3608 10.4218L10.2519 11.5507C10.0003 11.8068 9.58881 11.8105 9.3327 11.5589C9.0766 11.3074 9.07291 10.8958 9.32446 10.6397L11.5083 8.41638ZM19 13.7L20.7 13.7L20.7 10.3L19 10.3C18.0611 10.3 17.3 11.0611 17.3 12C17.3 12.9389 18.0611 13.7 19 13.7Z"/></svg>

<svg xmlns="http://www.w3.org/2000/svg" fill="none" viewBox="0 0 24 24" focusable="false"><path fill="#74767B" fill-rule="evenodd" d="M18 4c1.65 0 3 1.34 3 3v2.03c.57.14 1 .65 1 1.27v3.4c0 .61-.43 1.12-1 1.26V17c0 1.65-1.35 3-3 3H6c-1.66 0-3-1.35-3-3V7c0-1.66 1.34-3 3-3zM6 5.29c-.94 0-1.7.77-1.7 1.71v10c0 .93.76 1.7 1.7 1.7h12c.93 0 1.7-.77 1.7-1.7v-2H19c-1.66 0-3-1.35-3-3 0-1.66 1.34-3 3-3h.7V7c0-.94-.77-1.71-1.7-1.71zm6.42 3.11a.66.66 0 0 0-.92.01l-2.18 2.22c-.25.26-.25.67.01.92.25.26.67.25.92 0l1.11-1.13v4.94c0 .36.29.65.65.65.35 0 .65-.29.65-.65v-4.91l1.07 1.06c.26.26.67.25.92 0 .26-.26.25-.67 0-.92zM19 13.7h1.7v-3.4H19c-.94 0-1.71.76-1.71 1.7 0 .93.77 1.7 1.71 1.7"/></svg>
